X:6890
T:the Yellow Tinker
M:4/4
O:Ireland
R:Reel
Z:Richard Robinson 
%%TUNEURL: http://www.leeds.ac.uk/music/Info/RRTuneBk/gettune/00000bf8.html
%%ID:00000bf8
K:G mixolydian
DGGG DEFE| DGGG dBcA| G2GF DEFG|1 cAFA c2BA:|2 cAFA c2Bc||
dGGG GABc| dggd ^fgaf| gGGG BcdB| cAFA c2Bc|\
dGGG GABc| d2gd ^fgaf|
g2ae ^fgae| ^fgag fdcA||\
d2BG BdBG| BdBG c2Bc|
d2BG Bcde| fcAG FGAc| \
d2BG BdBG| BdBG c2Bc| d2de f2fe| cAFA G4|]
